X: 1
T: The Bank Of Turf
R: jig
M: 6/8
L: 1/8
K: Dmaj
dB|:ABA DFA|BAF DFA|dcd ede|~f3 def|
~g3 gab|afd B3|1efe e2d|cBA AdB:|2ABA efe|d3 dcd||
|:eAA efg|fdd fga|gfe fed|edB ABd|
eAA efg|fdd fga|gfe dcB|1A3 Bcd:|2A3 AdB||


Tune 1819	Setting 15256

